FINK
CUT[HEUTE WOLLEN WIR MARSCHIEREN]
REG[Europa, Mitteleuropa, Deutschland]
KEY[F0375  16  G 2/4]
MEL[  -5_1_1_1_  1-7123_1_
    5_2_2_1_  -7_-6_-7_-5_
    6_4_4_4_  43456__
    5_3_3_3_  32345__
    2_.34_-7_  2__1_0_
    6_4_4_4_  43456__
    5_3_3_3_  32345__
    2_.34_-7_  2__1_0_ //] >>
FCT[Jugend - Lied, Wander -, Marsch - Lied]
